src/components/00-materials/images-raw/Boy.svg

<svg width="96" height="96" viewBox="0 0 96 96" fill="none" xmlns="http://www.w3.org/2000/svg">
<path d="M32.15 48.1999C33.3813 51.4198 35.5624 54.1892 38.404 56.1409C41.2456 58.0926 44.6134 59.1343 48.0607 59.1278C51.508 59.1213 54.8718 58.0669 57.706 56.1045C60.5402 54.1421 62.7109 51.3644 63.93 48.1399M31.49 38.5499C30.2978 38.7053 29.2049 39.2954 28.4209 40.207C27.6369 41.1186 27.2171 42.2875 27.2419 43.4895C27.2667 44.6916 27.7343 45.8422 28.5552 46.7207C29.3761 47.5992 30.4924 48.1437 31.69 48.2499C31.8432 48.2602 31.9969 48.2602 32.15 48.2499C31.71 47.0499 31.57 36.0299 31.41 29.8899" stroke="#00008F" stroke-width="2" stroke-linecap="round" stroke-linejoin="round"/>
<path d="M64.68 32.8999C64.9783 32.7545 65.2301 32.5285 65.4068 32.2476C65.5835 31.9666 65.6781 31.6418 65.68 31.3099V20.1899C65.68 19.5599 61.42 12.9399 47.37 12.9399C31.81 12.9399 28.15 31.2499 28.15 31.2499C29.1529 30.6866 30.1997 30.205 31.28 29.8099M64.51 38.5499C65.7022 38.7054 66.7951 39.2954 67.5791 40.207C68.3631 41.1186 68.7829 42.2875 68.7581 43.4896C68.7333 44.6917 68.2657 45.8423 67.4448 46.7208C66.6239 47.5993 65.5076 48.1438 64.31 48.2499C64.1568 48.2603 64.0031 48.2603 63.85 48.2499C64.24 47.1899 64.52 39.1199 64.68 32.9199L64.51 38.5499Z" stroke="#00008F" stroke-width="2" stroke-linecap="round" stroke-linejoin="round"/>
<path d="M31.26 29.8099C36.4075 27.7763 42.1101 27.6381 47.35 29.4199C49.2778 30.121 51.3283 30.4214 53.3761 30.3028C55.424 30.1841 57.4261 29.6489 59.26 28.7299V31.3099C59.2599 31.7742 59.4423 32.2199 59.7678 32.551C60.0932 32.8821 60.5358 33.0721 61 33.0799H63.9C64.17 33.0773 64.4361 33.0158 64.68 32.8999M42.9 22.9999C33.98 22.2799 28.53 30.6099 28.53 30.6099M33.77 76.8399V81.4399M24 79.5099L36.83 81.9999C44.2137 83.3699 51.7863 83.3699 59.17 81.9999L72 79.5099M62.23 76.8399V81.4399" stroke="#00008F" stroke-width="2" stroke-linecap="round" stroke-linejoin="round"/>
<path d="M24 79.5099C24 66.2399 34.76 59.0499 48 59.0499C61.24 59.0499 72 66.2399 72 79.5099M54.23 59.9399C54.23 61.5922 53.5736 63.1769 52.4053 64.3452C51.2369 65.5136 49.6523 66.1699 48 66.1699C46.3477 66.1699 44.7631 65.5136 43.5947 64.3452C42.4264 63.1769 41.77 61.5922 41.77 59.9399" stroke="#00008F" stroke-width="2" stroke-linecap="round" stroke-linejoin="round"/>
</svg>

<svg width="96" height="96" viewBox="0 0 96 96" fill="none" xmlns="http://www.w3.org/2000/svg"><path d="M32.15 48.2a17 17 0 0031.78-.06m-32.44-9.59a4.88 4.88 0 00.2 9.7c.153.01.307.01.46 0-.44-1.2-.58-12.22-.74-18.36" stroke="#00008F" stroke-width="2" stroke-linecap="round" stroke-linejoin="round"/><path d="M64.68 32.9a1.78 1.78 0 001-1.59V20.19c0-.63-4.26-7.25-18.31-7.25-15.56 0-19.22 18.31-19.22 18.31a21.405 21.405 0 013.13-1.44m33.23 8.74a4.88 4.88 0 01-.2 9.7c-.153.01-.307.01-.46 0 .39-1.06.67-9.13.83-15.33l-.17 5.63z" stroke="#00008F" stroke-width="2" stroke-linecap="round" stroke-linejoin="round"/><path d="M31.26 29.81a23.34 23.34 0 0116.09-.39 15.08 15.08 0 0011.91-.69v2.58A1.77 1.77 0 0061 33.08h2.9c.27-.003.536-.064.78-.18M42.9 23c-8.92-.72-14.37 7.61-14.37 7.61m5.24 46.23v4.6M24 79.51L36.83 82a61.229 61.229 0 0022.34 0L72 79.51m-9.77-2.67v4.6" stroke="#00008F" stroke-width="2" stroke-linecap="round" stroke-linejoin="round"/><path d="M24 79.51c0-13.27 10.76-20.46 24-20.46s24 7.19 24 20.46M54.23 59.94a6.23 6.23 0 01-12.46 0" stroke="#00008F" stroke-width="2" stroke-linecap="round" stroke-linejoin="round"/></svg>
